X: 388
T: Jovial Beggar
N: Pub: J. Walsh, London, 1748
Z: 2012 John Chambers <jc:trillian.mit.edu>
S: 2: CCD2  http://petrucci.mus.auth.gr/imglnks/usimg/6/61/IMSLP173105-PMLP149069-caledoniancountr00ingl.pdf p.49 #309
S: 4: ACMV  http://archive.org/details/acompositemusicv01rugg p.4:49 #309
N: There are only 15 bars of music.
M: 2/4
L: 1/8
K: D
% - - - - - - - - - - - - - - - - - - - - - - - - -
V: 1
   A | d2AG | TF3E | DEFG | A3A  | Addd | Td3d | efge |
f2ed | Te3d | c2Bc | dcBA | BAGF | GABG | A2dc | d3  |]
% - - - - - - - - - - - - - - - - - - - - - - - - -
V: 2 clef=bass middle=d
     z | d2c2 | d3a  | f3e  | defg | f2d2 | f2g2 | a2A2 |
d'2c'b | c'3b | a2ga | bagf | gfed | efge | fga2 | d3  |]
%%begintext align
%% First Cu. turn right hands Single with his Partner and cast off .|
%% Turn Left hands Single and cast up :|
%% Cross over and half figure .|
%% Lead thro' the 3d Cu. cast up and turn :|:
%%endtext

%%sep 1 1 500
%%sep 1 1 500
